X:1
T:Title
%%score { ( 1 3 ) | ( 2 4 ) }
L:1/8
Q:1/4=100
M:4/4
K:Eb
V:1 treble nm="Grand Piano"
V:3 treble 
V:2 bass 
V:4 bass 
V:1
 [CE]2 [A,CF]2 [_DF]2[K:bass] [E,G,DE]2 | z2[K:treble] G2 z4 | [A,EA]2 [B,=EG]2 F2 [A,_EA]2 | %3
w: I.~H.~Meredith * * *|||
 [Dc]2 [A,DA]2 [_DB]4 | [E,A,CE]2 [A,CF]2 [_DF]2[K:bass] [E,G,DE]2 | z2[K:treble] G2 z4 | %6
w: |||
 [A,EA]2 [EF=A]2 [_DFB]2 [DF_d]2 | [_DGc]2 [DFB]2 [CEA]4 | [EGe]2 [EAd]2 [EB_d]2 [EAc]2 | %9
w: |||
 B>=A B>=B [CE_Ac]2 [CEA]2 | [C=Ec]2 [CF=B]2 [CG_B]2 [CFA]2 | [B,=E]->[B,EB] [B,EA]2 F,2 z2 | %12
w: |||
 [A,FA]2 [A,FA]2 [F_d]2 [_DF]2 | [CE]>[=B,D] [CE]>[CA] [Ec]2 [EA]2 | B2 B2 B2 A>G | G2 [DF]2 E4 | %16
w: ||||
 [EGe]2 [EAd]2 [EB_d]2 [EAc]2 | B>=A B>=B [CE_Ac]2 [CEA]2 | [CEc]2 [CF=B]2 [CG_B]2 [CFA]2 | %19
w: |||
 A>B [B,=EA]2 [A,CF]4 | [A,FA]2 [A,FA]2 [F_d]2 [_DF]2 | [CE]>[=B,D] [CE]>[CA] [Ec]2 [CA]2 | %22
w: |||
 e>d _d>c [A,DF]2 [B,_DG]2 | [CEA]6[K:bass] z2 |] %24
w: ||
V:2
 [A,,E,A,]2 [E,,E,]2 [B,,E,G,]2 E,,2 | z z/ E/ [E,,E,]2 [A,,E,A,]2 E,2 | C,2 C,2 A,2 C,2 | %3
 [B,,A,]2 B,,2 A,2 G,2 | A,,2 E,,2 [B,,E,G,]2 E,,2 | z z/ E/ [E,,E,]2 [A,,E,A,]2 E,,2 | %6
 C,2 C,2 _D,2 z z/[K:treble] c/ | E,2 E,2 [A,,E,]4 | [E,,E,]2 [F,,F,]2 [G,,G,]2 [A,,A,]2 | %9
 [E,,E,]2 [E,,E,]2 [A,,A,]2 [A,,A,]2 | [C,,C,]2 [D,,D,]2 [=E,,=E,]2 [F,,F,]2 | %11
 [C,,C,]2 z z/ G/ F,,2 C,2 | _D,2 D,2 [D,A,]2 [D,A,]2 | [A,,A,]2 [A,,A,]2 [A,,A,]2 [C,A,]2 | %14
 [E,G,E]2 [F,A,D]2 [G,B,E]2 [F,CE]2 | [B,D]2 [B,,A,]2 [E,G,]4 | %16
 [E,,E,]2 [F,,F,]2 [G,,G,]2 [A,,A,]2 | [E,,E,]2 [E,,E,]2 [A,,A,]2 [A,,A,]2 | %18
 [B,,,C,]2 [D,,D,]2 [=E,,=E,]2 [F,,F,]2 | [C,,C,]2 z z/ G/ F,,2 C,2 | _D,2 D,2 [D,A,]2 [D,A,]2 | %21
 [A,,A,]2 [A,,A,]2 [A,,A,]2 [A,,A,]2 | [C,,C,]2 [A,,,A,,]2 [B,,,B,,]2 [E,,E,]2 | %23
 [A,,A,]2 E,,2 A,,,2 z2 |] %24
V:3
 x6[K:bass] x2 | [E,G,_D=D]2[K:treble] [A,_D]->[A,DF] [CF]2 [A,CE]2 | x8 | x8 | x6[K:bass] x2 | %5
 [E,G,_D=D]2[K:treble] [G,D]->[G,DF] [CF]2 [E,A,CE]2 | x8 | x8 | x8 | [_DG]2 [DG]2 z4 | x8 | %11
 G2 z2 [A,CF]4 | x8 | x8 | x8 | x8 | x8 | [_DG]2 [DG]2 z4 | x8 | [B,=E]2 z2 F,2 z2 | x8 | x8 | %22
 [EA]2 E2 z4 | z2[K:bass] E,2 A,,2 z2 |] %24
V:4
 x8 | B,,2 z2 z4 | x8 | x8 | x8 | B,,2 z2 z4 | z4 z2 B,,2[K:treble] | x8 | x8 | x8 | x8 | %11
 z2 [C,,C,]2 z4 | x8 | x8 | x8 | x8 | x8 | x8 | x8 | z2 [C,,C,]2 z4 | x8 | x8 | x8 | x8 |] %24

